64x64/apps/houdini.svg

<svg xmlns="http://www.w3.org/2000/svg" width="64" height="64" version="1">
 <path style="opacity:0.2" d="M 7.8000002,4 H 58.199998 C 59.7512,4 61,5.2487998 61,6.7999998 V 57.199998 C 61,58.7512 59.7512,60 58.199998,60 H 22.799716 L 15.001963,55.91825 C 13.627659,55.198868 10.663365,54.326318 10.01135,52.918804 L 5,42.10071 V 6.7999998 C 5,5.2487998 6.2488,4 7.8000002,4 Z"/>
 <path style="fill:#ff5722" d="M 7.8000002,3 H 58.199998 C 59.7512,3 61,4.2487998 61,5.7999998 V 56.199998 C 61,57.7512 59.7512,59 58.199998,59 H 22.799716 L 13.674823,56.90896 C 12.162814,56.562472 9.1390488,54.596248 8.6842104,53.11323 L 5,41.10071 V 5.7999998 C 5,4.2487998 6.2488,3 7.8000002,3 Z"/>
 <path style="opacity:0.2" d="M 21.595703 13 C 20.147167 12.9901 18.693987 13.056628 17.623047 13.201172 C 13.482684 13.75998 8.9681267 15.559745 5 17.744141 L 5 24.689453 C 9.1881923 21.366483 15.105442 18.743629 20.638672 18.556641 C 21.116286 18.540501 21.579004 18.537421 22.03125 18.550781 C 25.196974 18.644011 27.785631 19.440034 30.404297 20.683594 C 35.664439 23.181536 39.522466 27.934761 40.933594 33.658203 C 42.55978 40.253877 41.043249 47.332267 37.109375 51.523438 C 34.113771 54.714939 28.669228 56.540737 23.486328 56.095703 C 20.287722 55.821017 17.077891 54.76888 14.732422 53.21875 C 13.762419 52.577664 12.121103 51.012814 11.417969 50.058594 C 9.3997898 47.319754 8.4722869 44.432146 8.7324219 41.705078 C 9.1915537 36.891964 12.893312 32.997839 18.8125 31.582031 C 20.515537 31.174677 22.536017 31.000924 23.539062 31.177734 C 26.430967 31.687506 28.659537 34.645937 28.650391 37.601562 C 28.647591 38.499702 28.616756 38.603398 28.09375 39.642578 C 26.803982 42.205272 23.263302 43.866857 21.3125 43.328125 C 20.14849 43.006659 19.210806 41.453187 18.933594 39.814453 C 18.776122 38.883639 18.587717 38.461951 18.21875 38.207031 C 17.002744 37.366929 14.919677 39.513334 14.378906 42.160156 C 13.916082 44.425516 14.297886 46.69342 15.669922 48.191406 C 16.607997 49.215588 18.428392 50.23453 20.154297 50.705078 C 20.959063 50.924486 21.366024 50.957031 23.277344 50.957031 C 25.75519 50.957031 27.047374 50.81021 28.664062 50.054688 C 31.908295 48.538551 34.470894 44.728413 35.558594 40.484375 C 36.765516 35.775153 35.589883 30.556612 32.193359 27.402344 C 29.971899 25.33935 27.420766 24.002575 23.580078 23.320312 C 18.987849 22.593376 14.186597 23.805242 10.802734 25.982422 C 4.5156686 30.08741 2.2389526 34.757047 2 42.167969 C 2.0354826 55.756877 11.86304 63 23.828125 63 C 42.094467 62.673446 48.927148 51.469438 49.945312 39.527344 C 50.307405 34.050456 48.869891 28.603105 45.148438 23.998047 C 44.012505 22.592401 41.596501 20.30985 40.050781 19.177734 C 35.787697 16.055303 30.916019 14.064453 25.546875 13.255859 C 24.488921 13.09653 23.044235 13.009875 21.595703 13 z"/>
 <path style="fill:#f4f4f7" d="M 21.595703 12 C 20.147167 11.9901 18.693987 12.056628 17.623047 12.201172 C 13.482684 12.75998 8.9681267 14.559745 5 16.744141 L 5 23.689453 C 9.1881923 20.366483 15.105442 17.743629 20.638672 17.556641 C 21.116286 17.540501 21.579004 17.537421 22.03125 17.550781 C 25.196974 17.644011 27.785631 18.440035 30.404297 19.683594 C 35.664439 22.181537 39.522466 26.934761 40.933594 32.658203 C 42.55978 39.253877 41.043249 46.332268 37.109375 50.523438 C 34.113771 53.714939 28.669228 55.540737 23.486328 55.095703 C 20.287722 54.821017 17.077891 53.76888 14.732422 52.21875 C 13.762419 51.577664 12.121103 50.012814 11.417969 49.058594 C 9.3997898 46.319754 8.4722869 43.432146 8.7324219 40.705078 C 9.1915537 35.891964 12.893312 31.997839 18.8125 30.582031 C 20.515537 30.174677 22.536017 30.000924 23.539062 30.177734 C 26.430967 30.687506 28.659537 33.645937 28.650391 36.601562 C 28.647591 37.499702 28.616756 37.603398 28.09375 38.642578 C 26.803982 41.205272 23.263302 42.866857 21.3125 42.328125 C 20.14849 42.006659 19.210806 40.453187 18.933594 38.814453 C 18.776122 37.883639 18.587717 37.461951 18.21875 37.207031 C 17.002744 36.366929 14.919677 38.513334 14.378906 41.160156 C 13.916082 43.425516 14.297886 45.69342 15.669922 47.191406 C 16.607997 48.215588 18.428392 49.23453 20.154297 49.705078 C 20.959063 49.924486 21.366024 49.957031 23.277344 49.957031 C 25.75519 49.957031 27.047374 49.81021 28.664062 49.054688 C 31.908295 47.538551 34.470894 43.728413 35.558594 39.484375 C 36.765516 34.775153 35.589883 29.556612 32.193359 26.402344 C 29.971899 24.33935 27.420766 23.002575 23.580078 22.320312 C 18.987849 21.593376 14.186597 22.805242 10.802734 24.982422 C 4.5156686 29.08741 2.2389526 33.757047 2 41.167969 C 2.0354826 54.756877 11.86304 62 23.828125 62 C 42.094467 61.673446 48.927148 50.469438 49.945312 38.527344 C 50.307405 33.050456 48.869891 27.603105 45.148438 22.998047 C 44.012505 21.592401 41.596501 19.30985 40.050781 18.177734 C 35.787697 15.055303 30.916019 13.064453 25.546875 12.255859 C 24.488921 12.09653 23.044235 12.009875 21.595703 12 z"/>
 <path style="opacity:0.2;fill:#f4f4f7" d="M 7.8007812 3 C 6.249581 3 5 4.2495812 5 5.8007812 L 5 6.8007812 C 5 5.2495813 6.249581 4 7.8007812 4 L 58.199219 4 C 59.750421 4 61 5.2495812 61 6.8007812 L 61 5.8007812 C 61 4.2495812 59.750421 3 58.199219 3 L 7.8007812 3 z"/>
</svg>

<svg xmlns="http://www.w3.org/2000/svg" width="64" height="64" version="1"><path style="opacity:.2" d="M7.8 4h50.4C59.751 4 61 5.249 61 6.8v50.4c0 1.551-1.249 2.8-2.8 2.8H22.8l-7.798-4.082c-1.374-.72-4.339-1.592-4.99-3L5 42.102V6.8C5 5.249 6.249 4 7.8 4z"/><path style="fill:#ff5722" d="M7.8 3h50.4C59.751 3 61 4.249 61 5.8v50.4c0 1.551-1.249 2.8-2.8 2.8H22.8l-9.125-2.091c-1.512-.347-4.536-2.313-4.99-3.796L5 41.101V5.8C5 4.249 6.249 3 7.8 3z"/><path style="opacity:.2" d="M21.596 13c-1.449-.01-2.902.057-3.973.201-4.14.559-8.655 2.359-12.623 4.543v6.945c4.188-3.323 10.105-5.945 15.639-6.132.477-.016.94-.02 1.392-.006 3.166.093 5.755.889 8.373 2.133 5.26 2.498 9.118 7.25 10.53 12.974 1.626 6.596.11 13.674-3.825 17.865-2.995 3.192-8.44 5.018-13.623 4.573-3.198-.275-6.408-1.327-8.754-2.877-.97-.641-2.61-2.206-3.314-3.16-2.018-2.74-2.946-5.627-2.686-8.354.46-4.813 4.161-8.707 10.08-10.123 1.704-.407 3.724-.581 4.727-.404 2.892.51 5.12 3.468 5.111 6.424-.002.898-.033 1.001-.556 2.04-1.29 2.563-4.83 4.225-6.782 3.686-1.164-.321-2.101-1.875-2.378-3.514-.158-.93-.346-1.352-.715-1.607-1.216-.84-3.3 1.306-3.84 3.953-.463 2.266-.081 4.533 1.29 6.031.939 1.025 2.76 2.044 4.485 2.514.805.22 1.212.252 3.123.252 2.478 0 3.77-.147 5.387-.902 3.244-1.516 5.807-5.327 6.895-9.57 1.207-4.71.03-9.928-3.366-13.083-2.221-2.063-4.772-3.4-8.613-4.082-4.592-.727-9.393.485-12.777 2.662C4.516 30.087 2.239 34.757 2 42.168 2.035 55.757 11.863 63 23.828 63c18.266-.327 25.1-11.53 26.117-23.473.362-5.477-1.075-10.924-4.797-15.529-1.135-1.406-3.551-3.688-5.097-4.82-4.263-3.123-9.135-5.114-14.504-5.922-1.058-.16-2.503-.246-3.951-.256z"/><path style="fill:#f4f4f7" d="M21.596 12c-1.449-.01-2.902.057-3.973.201-4.14.559-8.655 2.359-12.623 4.543v6.945c4.188-3.323 10.105-5.945 15.639-6.132.477-.016.94-.02 1.392-.006 3.166.093 5.755.889 8.373 2.133 5.26 2.498 9.118 7.25 10.53 12.974 1.626 6.596.11 13.674-3.825 17.865-2.995 3.192-8.44 5.018-13.623 4.573-3.198-.275-6.408-1.327-8.754-2.877-.97-.641-2.61-2.206-3.314-3.16-2.018-2.74-2.946-5.627-2.686-8.354.46-4.813 4.161-8.707 10.08-10.123 1.704-.407 3.724-.581 4.727-.404 2.892.51 5.12 3.468 5.111 6.424-.002.898-.033 1.001-.556 2.04-1.29 2.563-4.83 4.225-6.782 3.686-1.164-.321-2.101-1.875-2.378-3.514-.158-.93-.346-1.352-.715-1.607-1.216-.84-3.3 1.306-3.84 3.953-.463 2.266-.081 4.533 1.29 6.031.939 1.025 2.76 2.044 4.485 2.514.805.22 1.212.252 3.123.252 2.478 0 3.77-.147 5.387-.902 3.244-1.516 5.807-5.327 6.895-9.57 1.207-4.71.03-9.928-3.366-13.083-2.221-2.063-4.772-3.4-8.613-4.082-4.592-.727-9.393.485-12.777 2.662C4.516 29.087 2.239 33.757 2 41.168 2.035 54.757 11.863 62 23.828 62c18.266-.327 25.1-11.53 26.117-23.473.362-5.477-1.075-10.924-4.797-15.529-1.135-1.406-3.551-3.688-5.097-4.82-4.263-3.123-9.135-5.114-14.504-5.922-1.058-.16-2.503-.246-3.951-.256z"/><path style="opacity:.2;fill:#f4f4f7" d="M7.8 3C6.25 3 5 4.25 5 5.8v1C5 5.25 6.25 4 7.8 4h50.4C59.75 4 61 5.25 61 6.8v-1C61 4.25 59.75 3 58.2 3H7.8z"/></svg>
